X: 27941
T: Mountain Top, The
R: reel
M: 4/4
K: Gmajor
BG{B}AG EGDz|{c}BGAB cedc|Bz {B}AG EGDE|G2{B}AG EG3|
BG{B}AG EGDz|{c}BGAB cedc|Bz {B}AG EGDE|G2{B}AG EG3||
B3d ed{a}gd|ed{a}gd eg3|B3d e z{a}gd|cA{c}BG EG3|
B3d e z{a}gd|ed{a}gd eg{d}ga|bage d zBd|cA{c}BG EFGA||

